X:63
T: Landsknechtorden
N: A0416B
O: Europa, Mitteleuropa, Deutschland
N: Werlin 1646 S. 1701
R: Romanze, Ballade, Lied, Kriegslied
M: 4/4
L: 1/8
K: F
G2G2G2 | F2F2B2c2 | d2c2B2AG | A4F4 | z2
G2d2d2 | B2B2c3c | d2c2B3c | d4c4 | z2
B2A2G2 | c2B2F2G2 | A4z2
F2 | B3Bc2c2 | d4B4 | z2d2c2G2 | B2A2G4 | z2

@@@ Tune index: 376
